X:70
T:Frosty Morning 
R:
C:Bruce Osborne - Dec. 2002
Z:abc by bosborne@kos.net
M:3/4
L:1/8
K:Gmaj
(3DEF|G3 D GB|e2 d2 (3DEF|G3 B eB|c4 cB|\
A3 B AG|F3 G FE|D3 E DC|B,4 (3DEF|\
G3 D GB|e2 d2 (3DEF|G3 B eB|c4 cB|\
A3 B AG|F3 G AB|cA FA DF|G4||\
Bc|dB GB dg|b2 g2 Bc|dB Gd BG|F4 AB|\
cA FA DF|A2 F2 AB|cA FA DF|G4 Bc|\
dB GB dg|b2 g2 Bc|dB Gd BG|F4 AB|\
cA FA DF|A2 F2 AB|cA FA DF|G4||
